Adwaita++/actions/16/office-chart-ring.svg

<svg height="16" viewBox="0 0 16 16" width="16" xmlns="http://www.w3.org/2000/svg">
  <path d="m8 2c-3.324 0-6 2.676-6 6s2.676 6 6 6 6-2.676 6-6c0-.88178-.19248-1.71603-.53125-2.46875l-.78125.78125c.18973.52927.3125 1.09136.3125 1.6875 0 2.77-2.23 5-5 5s-5-2.23-5-5 2.23-5 5-5c1.64157 0 3.079714.7951356 3.990234 2.0097656l.722657-.7226562c-1.09689-1.3924-2.794831-2.2871094-4.712891-2.2871094zm0 2c-1.108 0-2.1070781.4469219-2.8300781 1.1699219l.7070312.7070312c.54225-.54225 1.2920469-.8769531 2.1230469-.8769531 1.662 0 3 1.338 3 3s-1.338 3-3 3-3-1.338-3-3c0-.30185.0565019-.5869281.1386719-.8613281l-.78125-.78125c-.22559.50158-.3574219 1.0550881-.3574219 1.6425781 0 2.216 1.784 4 4 4s4-1.784 4-4-1.784-4-4-4zm0 2a2 2 0 0 0 -2 2 2 2 0 0 0 2 2 2 2 0 0 0 1.9355469-1.5h-1.0722657a1 1 0 0 1 -.8632812.5 1 1 0 0 1 -1-1 1 1 0 0 1 1-1 1 1 0 0 1 .8652344.5h1.0683594a2 2 0 0 0 -1.9335938-1.5z" fill="#474747"/>
</svg>

<svg xmlns="http://www.w3.org/2000/svg" width="16" height="16" viewBox="0 0 16 16">
 <defs>
  <style id="current-color-scheme" type="text/css">
   .ColorScheme-Text { color:#474747; } .ColorScheme-Highlight { color:#4285f4; }
  </style>
 </defs>
 <path style="fill:currentColor" class="ColorScheme-Text" d="M 8 2 C 4.676 2 2 4.676 2 8 C 2 11.324 4.676 14 8 14 C 11.324 14 14 11.324 14 8 C 14 7.11822 13.80752 6.28397 13.46875 5.53125 L 12.6875 6.3125 C 12.87723 6.84177 13 7.40386 13 8 C 13 10.77 10.77 13 8 13 C 5.23 13 3 10.77 3 8 C 3 5.23 5.23 3 8 3 C 9.64157 3 11.079714 3.7951356 11.990234 5.0097656 L 12.712891 4.2871094 C 11.616001 2.8947094 9.91806 2 8 2 z M 8 4 C 6.892 4 5.8929219 4.4469219 5.1699219 5.1699219 L 5.8769531 5.8769531 C 6.4192031 5.3347031 7.169 5 8 5 C 9.662 5 11 6.338 11 8 C 11 9.662 9.662 11 8 11 C 6.338 11 5 9.662 5 8 C 5 7.69815 5.0565019 7.4130719 5.1386719 7.1386719 L 4.3574219 6.3574219 C 4.1318319 6.8590019 4 7.41251 4 8 C 4 10.216 5.784 12 8 12 C 10.216 12 12 10.216 12 8 C 12 5.784 10.216 4 8 4 z M 8 6 A 2 2 0 0 0 6 8 A 2 2 0 0 0 8 10 A 2 2 0 0 0 9.9355469 8.5 L 8.8632812 8.5 A 1 1 0 0 1 8 9 A 1 1 0 0 1 7 8 A 1 1 0 0 1 8 7 A 1 1 0 0 1 8.8652344 7.5 L 9.9335938 7.5 A 2 2 0 0 0 8 6 z"/>
</svg>
